X:1
T:Title
%%score { ( 1 3 ) | 2 }
L:1/8
M:4/4
K:D
V:1 treble nm="Grand Piano"
V:3 treble 
V:2 bass 
V:1
 z4 z2[Q:1/4=92] [DFA]2 | [A,DF]>[K:bass][A,CE] [F,A,D]2- [F,A,D][K:treble][A,DF][G,DE][F,D] | %2
 [DFA]6 [DFA]2 | [A,DF]>[K:bass][A,CE] [F,A,D]2- [F,A,D][K:treble][A,DF][G,DE][F,D] | %4
 [FA]4 [GB]2 [DGB]2 | [Gc]>[GB] [FA]2- [FA]FGA | F4 z DDD | D4- DDCB, | %8
[M:7/8] [CE]-[CE]-[CE]- [CE]- [CE]3 |[M:1/8] z/ d/ |[M:4/4] d>[Gc] [Gc]>[DB] [DB]>[FA] [FA]>[GB] | %11
 [GB]>[FA] [FA]>G G>A [DF]>[FA] | [FA]>G G>F F>E E>D | D>A AB [Gc] [Fd]3 |[M:1/8] z/ d/ | %15
[M:4/4] d>[Gc] [Gc]>[DB] [DB]>[FA] [FA]>[GB] | [GB]>[FA] [FA]>G G>A [DF]>[FA] | %17
 [FA]>G G>F F>E E>D | D>A AB [Gc] [Fd]3 | [DFA]>[DGB] [DGB]2 [DFA]4 | %20
[M:3/4] [A,DF]>[A,EG][K:bass] [G,CE]2 [F,A,D]2 |] %21
V:2
 z4 z2 D,2 | D,>A,, D,2- D,D,D,D, | D,6 D,2 | D,>A,, D,2- D,D,D,D, | D,4 G,2 G,2 | %5
 [E,A,]>[E,C] [D,D]2- [D,D][D,A,D][E,A,D][F,A,D] | [D,A,D]4 z [D,F,A,][D,G,^A,][D,G,A,] | %7
 [D,F,A,]4- [D,F,A,][E,^G,B,][E,G,B,][E,G,] |[M:7/8] [A,,A,]-[A,,A,]-[A,,A,]- [A,,A,]- [A,,A,]3 | %9
[M:1/8] z/[K:treble] [B,F]/ |[M:4/4] [B,F]>[K:bass][E,B,] [E,B,]>[G,B,] [G,B,]>[D,D] [D,D]>[G,D] | %11
 [G,D]>[D,D] [D,D]>[E,B,E] [E,B,E]>[E,B,E] [B,,B,]>[D,B,] | %12
 [D,B,]>[E,B,E] [E,B,E]>[F,B,D] [F,B,D]>[G,B,C] [G,B,C]>[F,B,] | %13
 [F,A,]>[F,A,D] [F,A,D][G,D] [A,,A,] [D,A,]3 |[M:1/8] z/[K:treble] [B,F]/ | %15
[M:4/4] [B,F]>[K:bass][E,B,] [E,B,]>[G,B,] [G,B,]>[D,D] [D,D]>[G,D] | %16
 [G,D]>[D,D] [D,D]>[E,B,E] [E,B,E]>[E,B,E] [B,,B,]>[D,B,] | %17
 [D,B,]>[E,B,E] [E,B,E]>[F,B,D] [F,B,D]>[G,B,C] [G,B,C]>[F,B,] | %18
 [F,A,]>[F,A,D] [F,A,D][G,D] [A,,A,] [D,A,]3 | D,>G, G,2 D,4 |[M:3/4] D,>A,, A,,2 D,2 |] %21
V:3
 x8 | x3/2[K:bass] x7/2[K:treble] x3 | x8 | x3/2[K:bass] x7/2[K:treble] x3 | D6 z2 | x8 | x8 | x8 | %8
[M:7/8] x7 |[M:1/8] x |[M:4/4] x8 | x8 | x8 | x8 |[M:1/8] x |[M:4/4] x8 | x8 | x8 | x8 | x8 | %20
[M:3/4] x2[K:bass] x4 |] %21

